_includes/icons/color-binder.svg

<svg fill="#666" height="50" viewBox="0 0 48 48" width="50" xmlns="http://www.w3.org/2000/svg"><path d="m6 40v-32c0-1.101562.898438-2 2-2h12c1.101563 0 2 .898438 2 2v32c0 1.101563-.898437 2-2 2h-12c-1.101562 0-2-.898437-2-2z" fill="#3f51b5"/><path d="m18 34c0 2.210938-1.789062 4-4 4-2.210937 0-4-1.789062-4-4 0-2.210937 1.789063-4 4-4 2.210938 0 4 1.789063 4 4z" fill="#b0bec5"/><path d="m16.5 34c0 1.378906-1.121094 2.5-2.5 2.5s-2.5-1.121094-2.5-2.5 1.121094-2.5 2.5-2.5 2.5 1.121094 2.5 2.5z" fill="#0e1447"/><path d="m11 11h6v15h-6z" fill="#fff"/><path d="m26 40v-32c0-1.101562.898438-2 2-2h12c1.101563 0 2 .898438 2 2v32c0 1.101563-.898437 2-2 2h-12c-1.101562 0-2-.898437-2-2z" fill="#f44336"/><path d="m38 34c0 2.210938-1.789062 4-4 4-2.210937 0-4-1.789062-4-4 0-2.210937 1.789063-4 4-4 2.210938 0 4 1.789063 4 4z" fill="#b0bec5"/><path d="m36.5 34c0 1.378906-1.121094 2.5-2.5 2.5s-2.5-1.121094-2.5-2.5 1.121094-2.5 2.5-2.5 2.5 1.121094 2.5 2.5z" fill="#751212"/><path d="m31 11h6v15h-6z" fill="#fff"/></svg>

<svg xmlns="http://www.w3.org/2000/svg" viewBox="0 0 48 48" width="50" height="50" fill="#666"><path d="M 6 40 L 6 8 C 6 6.898438 6.898438 6 8 6 L 20 6 C 21.101563 6 22 6.898438 22 8 L 22 40 C 22 41.101563 21.101563 42 20 42 L 8 42 C 6.898438 42 6 41.101563 6 40 Z" fill="#3f51b5"/><path d="M 18 34 C 18 36.210938 16.210938 38 14 38 C 11.789063 38 10 36.210938 10 34 C 10 31.789063 11.789063 30 14 30 C 16.210938 30 18 31.789063 18 34 Z" fill="#b0bec5"/><path d="M 16.5 34 C 16.5 35.378906 15.378906 36.5 14 36.5 C 12.621094 36.5 11.5 35.378906 11.5 34 C 11.5 32.621094 12.621094 31.5 14 31.5 C 15.378906 31.5 16.5 32.621094 16.5 34 Z" fill="#0e1447"/><path d="M 11 11 L 17 11 L 17 26 L 11 26 Z" fill="#fff"/><path d="M 26 40 L 26 8 C 26 6.898438 26.898438 6 28 6 L 40 6 C 41.101563 6 42 6.898438 42 8 L 42 40 C 42 41.101563 41.101563 42 40 42 L 28 42 C 26.898438 42 26 41.101563 26 40 Z" fill="#f44336"/><path d="M 38 34 C 38 36.210938 36.210938 38 34 38 C 31.789063 38 30 36.210938 30 34 C 30 31.789063 31.789063 30 34 30 C 36.210938 30 38 31.789063 38 34 Z" fill="#b0bec5"/><path d="M 36.5 34 C 36.5 35.378906 35.378906 36.5 34 36.5 C 32.621094 36.5 31.5 35.378906 31.5 34 C 31.5 32.621094 32.621094 31.5 34 31.5 C 35.378906 31.5 36.5 32.621094 36.5 34 Z" fill="#751212"/><path d="M 31 11 L 37 11 L 37 26 L 31 26 Z" fill="#fff"/></svg>
